X:209
T:Pays de Haut
M:4/4
L:1/8
K:D
P:A
  fg |: afaf d2ef | gfge c2ef | gfed cABc | defg a2 fg |
| afaf d2ef | gfge c2ef | gfed cABc |1 d2f2 d2 fg :|2 d2f2 d2A2 |
P:B
|: FAdA FAdA | GBdB GBdB | ABcd efec | defg a2 A2 |
| FAdA FAdA | GBdB GBdB | ABcd efec |1 d2f2 d2 A2 :|2 d2f2 d2|
